!!!!SEGMENT: pl-cz--iii-370--008_krogulski-jozef-wlladysllaw--msza-c-agnus.krn
!!!cenid: 18xx:945
!!!COM: Krogulski, Józef Władysław
!!!COM-rismid: pe30001797
!!!CDT: 1815/10/04-1842/01/09
!!!CNT: Polish
!!!OPR: Msza C
!!!OTL: Agnus
!!!OMV: 008
!!!PDT:
!!!AGN: Sacred; Mass
!!!SMS-siglum: PL-CZ
!!!SMS-shelfmark: III-370
!!!SMS-shelfwork: 001-008 M
!!!SMS-variant:
!!!SMS-altvar:
!!!NIFC-rismid: 300000646
!!!URL-scan: http://repozytorium.nifc.pl/skany/pl-cz-nut--iii-370
!!!ONB-nifc: UWAGA: części Mszy: Kyrie, Gloria, Andante przed Ewangelią, Credo, Offertorium, Sanctus, Benedictus, Agnus, Na Benedykcyią
**kern	**text	**dynam	**kern	**text	**dynam	**kern	**text	**dynam	**kern	**kern	**dynam
*group2	*	*	*group2	*	*	*group2	*	*	*group1	*group1	*
*part4	*part4	*part4	*part3	*part3	*part3	*part2	*part2	*part2	*part1	*part1	*part1
*staff5	*staff5	*	*staff4	*staff4	*	*staff3	*staff3	*	*staff2	*staff1	*
*I"Bas	*	*	*I"Spiew Drugi	*	*	*I"Spiew Pierwszy	*	*	*I"Organ	*	*
*Ibass	*	*	*Isoprn	*	*	*Isoprn	*	*	*Iorgan	*Iorgan	*
*ICvox	*	*	*ICvox	*	*	*ICvox	*	*	*ICklav	*ICklav	*
*IGcoro	*	*	*IGcoro	*	*	*IGcoro	*	*	*IGacmp	*IGacmp	*
*I'[B]	*	*	*I'[S 2]	*	*	*I'[S 1]	*	*	*I'[Org]	*	*
*clefF4	*	*	*clefG2	*	*	*clefG2	*	*	*clefF4	*clefG2	*
*k[f#]	*	*	*k[f#]	*	*	*k[f#]	*	*	*k[f#]	*k[f#]	*
*e:	*	*	*e:	*	*	*e:	*	*	*e:	*e:	*
*M4/4	*	*	*M4/4	*	*	*M4/4	*	*	*M4/4	*M4/4	*
*met(c)	*	*	*met(c)	*	*	*met(c)	*	*	*met(c)	*met(c)	*
!LO:TX:t=P:problem:all\right:global	!	!	!LO:TX:t=P:problem:all\right:global	!	!	!LO:TX:t=P:problem:all\right:global	!	!	!LO:TX:t=P:problem:all\right:global	!LO:TX:t=P:problem:all\right:global	!
!	!	!LO:DY:a:rj	!	!	!LO:DY:a:rj	!	!	!LO:DY:b:rj	!	!LO:TX:a:B:t=Largo	!LO:DY:rj
4E\	pa-	p	4g/	pa-	p	4b\	pa-	p	4EE/ 4E/	4g/ 4b/	p
=1	=1	=1	=1	=1	=1	=1	=1	=1	=1	=1	=1
*2\right	*	*	*2\right	*	*	*2\right	*	*	*	*2\right	*
2.E\	-daj-	.	(<2g/	-daj-	.	(>2cc\	-daj-	.	[<1EE [>1E	2g/ 2b/	.
.	.	.	4b/)	.	.	4dd\)	.	.	.	4b\ 4dd\	.
4E\	-cie	.	4g/	-my	.	4cc\	-cie	.	.	4a\ 4cc\	.
=2	=2	=2	=2	=2	=2	=2	=2	=2	=2	=2	=2
2E\	lu-	.	2g/	lu-	.	2b\	lu-	.	1EE] 1E]	1g 1b	.
8E\	-dy	.	8g/	-dy	.	8b\	-dy	.	.	.	.
8r	.	.	8r	.	.	8r	.	.	.	.	.
4E\	u-	.	4g/	u-	.	4b\	u-	.	.	.	.
=3	=3	=3	=3	=3	=3	=3	=3	=3	=3	=3	=3
2AA/	-niż-	.	(<4a/	-niż-	.	(>4cc\	-niż-	.	1AA	4a\ 4cc\	.
.	.	.	4cc/)	.	.	4ee\)	.	.	.	4cc\ 4ee\	.
4AA/	-cie	.	4b/	-cie	.	4dd\	-cie	.	.	4b\ 4dd\	.
4AA/	się	.	4a/	się	.	4cc\	się	.	.	4a\ 4cc\	.
=4	=4	=4	=4	=4	=4	=4	=4	=4	=4	=4	=4
2BB/	tro-	.	4.g/	tro-	.	(>4.b\	tro-	.	2BB/	4.g/ 4.b/	.
.	.	.	8f#/	.	.	8a\)	.	.	.	8f#/ 8a/	.
16E\	-ny	.	16e/	-ny	.	16g/	-ny	.	16E\	8r	.
16r	.	.	16r	.	.	16r	.	.	16r	.	.
8E\	przed	.	8e/	przed	.	8g/	przed	.	8E\L	8e/L 8g/	.
!	!	!	!LO:LB:g=original	!	!	!	!	!	!	!	!
8E\	ſmier-	.	8e/	ſmier-	.	8g/	ſmier-	.	8E\	8e/ 8g/	.
8E\	-tel-	.	8e/	-tel-	.	8g/	-tel-	.	8E\J	8e/J 8g/	.
!LO:LB:g=original	!	!	!	!	!	!	!	!	!	!	!
=5	=5	=5	=5	=5	=5	=5	=5	=5	=5	=5	=5
*	*	*	*	*	*	*	*	*	*	*^	*
(>2AA/	-ni-	.	2.e/	-ni-	.	(>2cc\	-ni-	.	2AA/	2cc/	1e	.
!	!	!	!	!	!	!LO:LB:g=original	!	!	!	!	!	!
4BB/)	.	.	.	.	.	4b\)	.	.	4BB/	4b/	.	.
4C/	-kow	.	4f#/	-kow	.	4a\	-kow	.	4C/	4g/	.	.
*	*	*	*	*	*	*	*	*	*	*v	*v	*
=6	=6	=6	=6	=6	=6	=6	=6	=6	=6	=6	=6
4D/	o-	.	4f#/	o-	.	4f#/	o-	.	4D/	2d/ 2f#/	.
4C/	-kiem	.	4f#/	-kiem	.	4f#/	-kiem	.	4C/	.	.
4BB/	u-	.	4g/	u-	.	4g/	u-	.	4BB/	4e/ 4g/	.
4AA/	-ta-	.	4a/	-ta-	.	4a/	-ta-	.	4AA/	4f#/ 4a/	.
=7	=7	=7	=7	=7	=7	=7	=7	=7	=7	=7	=7
1GG	-jo-	.	(<4g/	-jo-	.	(>4b\	-jo-	.	1GG	4g\ 4b\	.
.	.	.	4a/	.	.	4cc\	.	.	.	4a\ 4cc\	.
.	.	.	4b/	.	.	4dd\	.	.	.	4b\ 4dd\	.
.	.	.	4cc/	.	.	4ee\)	.	.	.	4cc\ 4ee\	.
=8	=8	=8	=8	=8	=8	=8	=8	=8	=8	=8	=8
*	*	*	*	*	*	*	*	*	*2\right	*	*
2D\	.	.	4.b/)	.	.	4.dd\	.	.	2D\	4.b\ 4.dd\	.
.	.	.	8a/	.	.	8cc\	.	.	.	8a\ 8cc\	.
*	*	*	*	*	*	*	*	*	*tremolo	*tremolo	*
16G\	-ny	.	16g/	-ny	.	16b\	-ny	.	8G\L	8g\ 8b\L	.
16r	.	.	16r	.	.	16r	.	.	.	.	.
8G\	przed	.	8g/	przed	.	8b\	przed	.	8G\	8g\ 8b\	.
8G\	ſmier-	.	8g/	ſmier-	.	8b\	ſmier-	.	8G\	8g\ 8b\	.
8G\	-tel-	.	8g/	-tel-	.	8b\	-tel-	.	8G\J	8g\ 8bJ\	.
*	*	*	*	*	*	*	*	*	*Xtremolo	*Xtremolo	*
!	!	!	!LO:LB:g=original	!	!	!	!	!	!LO:LB:g=original	!LO:LB:g=original	!
=9	=9	=9	=9	=9	=9	=9	=9	=9	=9	=9	=9
*	*	*	*	*	*	*	*	*	*	*^	*
2.E\	-ni-	.	2.g/	-ni-	.	(>4cc\	-ni-	.	2.E\	4cc/	1g	.
.	.	.	.	.	.	4b\	.	.	.	4b/	.	.
.	.	.	.	.	.	4cc\	.	.	.	4cc/	.	.
4D\	-kow	.	4g/	-kow	.	4dd\)	-kow	.	4D\	4dd/	.	.
!	!	!	!	!	!	!LO:LB:g=original	!	!	!	!	!	!
=10	=10	=10	=10	=10	=10	=10	=10	=10	=10	=10	=10	=10
4C/	o-	.	4g/	o-	.	4ee\	o-	.	4C/	2ee/	4g\	.
4BB/	-kiem	.	4g#X/	-kiem	.	4ee\	-kiem	.	4BB/	.	4g#X\	.
4C/	u-	.	4a/	u-	.	4ee\	u-	.	4C/	2ryy	4a\	.
4AA/	-ta-	.	4cc/	-ta-	.	4ee\	-ta-	.	4AA/	.	4cc\	.
*	*	*	*	*	*	*	*	*	*	*v	*v	*
!LO:LB:g=original	!	!	!	!	!	!	!	!	!	!	!
=11	=11	=11	=11	=11	=11	=11	=11	=11	=11	=11	=11
1D	-jo-	.	(>4b\	-jo-	.	4dd\	-jo-	.	1D	4b\ 4dd\	.
.	.	.	4a\	.	.	4cc\	.	.	.	4a\ 4cc\	.
.	.	.	4gn\	.	.	4b\	.	.	.	4gn\ 4b\	.
.	.	.	4f#\)	.	.	4a\	.	.	.	4f#\ 4a\	.
=12	=12	=12	=12	=12	=12	=12	=12	=12	=12	=12	=12
4E\	-ny	.	4g/	-ny	.	4g/	-ny	.	4G\	(<8g/L	.
.	.	.	.	.	.	.	.	.	.	8d/	.
4r	.	.	4r	.	.	4r	.	.	4r	8B/	.
.	.	.	.	.	.	.	.	.	.	8c/J)	.
2r	.	.	2r	.	.	8r	.	.	2r	8d/L	.
.	.	.	.	.	.	8g/	pod	.	.	8g/	.
.	.	.	.	.	.	8a/	po-	.	.	8a/	.
.	.	.	.	.	.	8g/	-sta-	.	.	8g/J	.
=13	=13	=13	=13	=13	=13	=13	=13	=13	=13	=13	=13
*	*	*	*	*	*	*	*	*	*^	*	*
2r	.	.	8r	.	.	2dd\	-cia-	.	8r	2ryy	[<2dd/	.
.	.	.	8g/	Pod	.	.	.	.	8G\L	.	.	.
.	.	.	8a/	pos-	.	.	.	.	8A\	.	.	.
.	.	.	8g/	-ta-	.	.	.	.	8G\J	.	.	.
!	!	!	!	!	!	!	!	!	!	!	!LO:TX:a:i:t=mono destra	!
8r	.	.	4.dd\	-cia-	.	8ee\L	-mi	.	8rGG	2d\	8dd/L]	.
8AA/	pod	.	.	.	.	8b\	.	.	8GG/L	.	8b/	.
8AA/	pos-	.	.	.	.	8cc\J	.	.	8AA/	.	8b/	.
8AA/	-ta-	.	8dd\	-mi	.	8b\	wi-	.	8GG/J	.	8b/J	.
*	*	*	*	*	*	*	*	*	*v	*v	*	*
!	!	!	!LO:LB:g=original	!	!	!	!	!	!	!	!
=14	=14	=14	=14	=14	=14	=14	=14	=14	=14	=14	=14
*	*	*	*	*	*	*	*	*	*	*^	*
4D\	-cia-	.	4f#/	wi-	.	2.cc\	.	.	4D\	2cc/	4f#\	.
4E\	-mi	.	(<4g/	.	.	.	.	.	4E\	.	4g\	.
(>8F#\L	wi-	.	8a/L	.	.	.	.	.	8F#\L	2ryy	8a\L	.
8D\J)	.	.	8f#/J)	.	.	.	.	.	8D\	.	8f#\	.
8E\	-na	.	8g/	-na	.	8cc\	-na	.	8E\	.	8g\	.
8F#\	i	.	8a/	i	.	8cc\	i	.	8F#\J	.	8a\J	.
!	!	!	!	!	!	!LO:LB:g=original	!	!	!	!	!	!
=15	=15	=15	=15	=15	=15	=15	=15	=15	=15	=15	=15	=15
(>4G\	chle-	.	(<2g/	chle-	.	2b\	chle-	.	4G\	2b/	2g\	.
4GG/	.	.	.	.	.	.	.	.	4GG/	.	.	.
4AA/	.	.	4f#/	.	.	4a\	.	.	4AA/	4a/ 4f#/	4ryy	.
4AA#X/)	.	.	4e/)	.	.	4g/	.	.	4AA#X/	4g/ 4e/	4ryy	.
*	*	*	*	*	*	*	*	*	*	*v	*v	*
=16	=16	=16	=16	=16	=16	=16	=16	=16	=16	=16	=16
4BB/	-ba	.	4d#X/	-ba	.	4f#/	-ba	.	4BB/	(<8d#X/L 8f#/	.
.	.	.	.	.	.	.	.	.	.	8b/	.
4r	.	.	4r	.	.	4r	.	.	4r	8cc/	.
.	.	.	.	.	.	.	.	.	.	8b/J)	.
2r	.	.	2r	.	.	2r	.	.	2r	8a#X/L	.
.	.	.	.	.	.	.	.	.	.	8b/	.
.	.	.	.	.	.	.	.	.	.	8an/	.
.	.	.	.	.	.	.	.	.	.	8f#/J	.
!LO:LB:g=original	!	!	!	!	!	!	!	!	!LO:PB:g=original	!LO:PB:g=original	!
=17	=17	=17	=17	=17	=17	=17	=17	=17	=17	=17	=17
*	*	*	*	*	*	*	*	*	*	*^	*
!	!	!LO:DY:a:rj	!	!	!LO:DY:a:rj	!	!	!LO:DY:a:rj	!	!	!	!
2E\	Bog	p	2g/	Bog	p	(>4b\	Bog	p	[<1EE [>1F#	4b/	2g\	p
.	.	.	.	.	.	4ee\)	.	.	.	4ee/	.	.
4E\	ztą-	.	4b/	ztą-	.	4dd\	ztą-	.	.	4dd\ 4b\	4ryy	.
4E\	-pił	.	4a/	-pił	.	4cc\	-pił	.	.	4cc\ 4a\	4ryy	.
*	*	*	*	*	*	*	*	*	*	*v	*v	*
=18	=18	=18	=18	=18	=18	=18	=18	=18	=18	=18	=18
2.E\	z Nie-	.	2.g/	z Nie-	.	2.b\	z Nie-	.	1EE] 1F#]	1g 1b	.
4E\	-ba	.	4g/	-ba	.	4b\	-ba	.	.	.	.
=19	=19	=19	=19	=19	=19	=19	=19	=19	=19	=19	=19
2BB/	Bog	.	(<4g/	Bog	.	(<4b/	Bog	.	1BB	4g\ 4b\	.
.	.	.	4f#/)	.	.	4a/)	.	.	.	4f#\ 4a\	.
4BB/	stą-	.	4e/	ztą-	.	4g/	ztą-	.	.	4e\ 4g\	.
4BB/	-pił	.	4d#X/	-pił	.	4f#/	-pił	.	.	4d#X\ 4f#\	.
!	!	!	!LO:LB:g=original	!	!	!	!	!	!	!	!
=20	=20	=20	=20	=20	=20	=20	=20	=20	=20	=20	=20
2BB/	z Nie-	.	2d/	z Nie-	.	2f#/	z Nie-	.	2BB/	2d/ 2f#/	.
4E\	-ba	.	4e/	-ba	.	4e/	-ba	.	4E\	4e/	.
4r	.	.	4r	.	.	4r	.	.	4r	4r	.
=21	=21	=21	=21	=21	=21	=21	=21	=21	=21	=21	=21
!	!	!	!	!	!	!	!	!	!	!LO:N:vis=1	!
2BB/	a-	.	2d/	a-	.	2f#/	a-	.	2BB/	2A\ 2d#X 2f#	.
4E\	-men	.	4e/	-m[en]	.	4e/	-[me]n	.	4E\	4G/ 4e/	.
4r	.	.	4r	.	.	4r	.	.	4r	4r	.
=22	=22	=22	=22	=22	=22	=22	=22	=22	=22	=22	=22
2BB/	a-	.	2d/	a-	.	2b\	a-	.	2BB/	2B/ 2d#X/ 2f#/ 2b/	.
4E\	-m[en]	.	4e/	-[me]n	.	4e/	-[men]	.	4E\	4e/	.
4r	.	.	4r	.	.	4r	.	.	4ryy	4r	.
==	==	==	==	==	==	==	==	==	==	==	==
*-	*-	*-	*-	*-	*-	*-	*-	*-	*-	*-	*-
!!!system-decoration: {(g1)}[(g2)]
!!!ENC: Tomasz Grocholski
!!!END: 2020.08.31
!!!EED: Jędrzej Mróz
!!!ESR: 2021-11-08
!!!RDF**kern: > = above
!!!RDF**kern: < = below
